icons/calendar-date-20.svg

<svg
  xmlns="http://www.w3.org/2000/svg"
  viewBox="0 0 500 500"
  width="500"
  height="500"
  fill="#ffffff"
>
  <path d="M382.5 47.2h-16.7V5h-24.4v42.2H158.6V5h-24.4v42.2h-16.7a91.5 91.5 0 0 0-91.4 91.4v265a91.5 91.5 0 0 0 91.4 91.4h265a91.5 91.5 0 0 0 91.4-91.4v-265a91.5 91.5 0 0 0-91.4-91.4zm67 356.4a67.1 67.1 0 0 1-67 67h-265a67.1 67.1 0 0 1-67-67v-265c0-2.2.1-4.3.3-6.4h398.4c.2 2.1.3 4.2.3 6.4z" />
  <path
    data-name="2"
    d="M142.2 373.5l16.4-15.1c43.4-41.8 70.9-72.5 70.9-110.4 0-29.5-18.7-59.8-63-59.8a90.5 90.5 0 0 0-58.2 20.8l8.9 19.6c9.5-7.9 25-17.3 43.6-17.3 30.7 0 40.9 19.2 40.9 40.1-.4 31-24.1 57.6-76.6 107.6l-21.8 21.2v17.1h131.3v-23.1h-92.4z"
  />
  <path
    data-name="0"
    d="M334.2 188.2c-41.8 0-71.5 37.9-71.5 106.9s27.8 105.6 68 105.6c45.6 0 71.5-38.5 71.5-108.5 0-65.4-24.7-104-68-104zm-1.9 191c-25.3 0-41.8-30.3-41.8-83.8 0-56 17.8-85.7 42.1-85.7 28.8 0 41.8 33.2 41.8 83.8 0 52.5-13.6 85.7-42.1 85.7z"
  />
</svg>

<svg xmlns="http://www.w3.org/2000/svg" viewBox="0 0 500 500">
  <g id="calendar-date-20">
    <path id="outline" d="M382.5,47.2H365.8V5H341.4V47.2H158.6V5H134.2V47.2H117.5a91.5,91.5,0,0,0-91.4,91.4v265A91.5,91.5,0,0,0,117.5,495h265a91.5,91.5,0,0,0,91.4-91.4v-265A91.5,91.5,0,0,0,382.5,47.2Zm67,356.4a67.1,67.1,0,0,1-67,67h-265a67.1,67.1,0,0,1-67-67v-265c0-2.2.1-4.3.3-6.4H449.2c.2,2.1.3,4.2.3,6.4Z"/>
    <path id="_2" data-name="2" d="M142.2,373.5l16.4-15.1c43.4-41.8,70.9-72.5,70.9-110.4,0-29.5-18.7-59.8-63-59.8A90.5,90.5,0,0,0,108.3,209l8.9,19.6c9.5-7.9,25-17.3,43.6-17.3,30.7,0,40.9,19.2,40.9,40.1-.4,31-24.1,57.6-76.6,107.6l-21.8,21.2v17.1H234.6V374.2H142.2Z"/>
    <path id="_0" data-name="0" d="M334.2,188.2c-41.8,0-71.5,37.9-71.5,106.9s27.8,105.6,68,105.6c45.6,0,71.5-38.5,71.5-108.5C402.2,226.8,377.5,188.2,334.2,188.2Zm-1.9,191c-25.3,0-41.8-30.3-41.8-83.8,0-56,17.8-85.7,42.1-85.7,28.8,0,41.8,33.2,41.8,83.8C374.4,346,360.8,379.2,332.3,379.2Z"/>
  </g>
</svg>
